X: 30771
T: Orphan, The
R: jig
M: 6/8
K: Eminor
|:~E3 EDB,|GFG AGA|~B3 ABA|GEF EDB,|
~A,3 EDB,|GFG AGA|~B3 ABA|1 GEF GFD:|2 GED Egf||
~e3 edB|GAB dgf|edB ABc|BGF EDB,|
~A,3 EDB,|GFG AGA|~B3 ABA|GED E2f|
~g3 fed|BAB dgf|edB ABc|BGF EDB,|
~A,3 EDB,|GFG AGA|~B3 ABA|GEF GFD||

